ZUCCAL
CUT["Neckerei"
    STEH NUR AUF TYROLERBU]
REG[Europa, Mitteleuropa, Tirol]
KEY[Z1205  16  D 4/4]
MEL[3_.4  5__3_.45__3_.4  5__+3_+2_+1__
    5_.5  5__+4_.+3+2__+3_.+2  +1___.
    3_.4  5__3_.45__3_.4  5__+3_+2_+1__
    5_.5  5__+4_.+3+2__+3_.+2  +1___.
    5__  4__+2_.+17__5__  5__+3_.+2+1__
    5_5_  4_5_+2_+1_7__5__  5__+3_.+2+1__
    3_.4  5_4_3_4_5_4_3_4_  5__+3_.+2+1__
    5_.5  5__+4_.+3+2__+3_.+2  +1___. //] >>
FCT[Liebes - Lied]
